X:1
T:Lord Lovat's Lament
T:Lord Lovat's Lament
T:David Fraser James Stewart Robertson 
C:David Fraser
%%score 1 { 2 | 3 }
L:1/8
Q:1/4=120
M:4/4
K:G
V:1 treble nm="Violin" snm="Vln."
V:2 treble nm="Accordion" snm="Acc."
V:3 bass 
V:1
"^Moderato" z2 | z8 | z8 | z8 | z8 | z8 | z8 | z8 | z4 z2 |: z2 | z8 | z8 | z8 | z8 | z8 | z8 | %16
 z8 | z4 z2 ::[K:G][M:2/2]"^Roland FR4XVUPG4-07 Violin" GA | B2 Bd cBAG | Bdef g2 fe | ddde dBGA | %22
 B2 A2 A2 GA | B2 Bd cBAG | Bdef g2 fe | ddde dBGA | B2 G2 G2 :: Bd | g2 ga gfed | edef g2 fe | %30
 ddde dBGA | B2 A2 A2 Bd | g2 ga gfed | edef g2 fe | ddde dBGA |1 B2 G2 G2 :|2 B2 G2 .G2 z2 || %37
 G8 |] %38
V:2
 GA |"^Roland FR4XVUPG4-07 Accordion Solo" B2 d2 cBAG | B<d d>e d2 ef | g2 dg ed B<G | BAAG A2 GA | %5
 B2 d2 cBAG | B<d d>e d2 BG | c>d (3edc B<d c>A | G2 GA G2 |: ef | g2 dg edBG | B<d d>e d2 ef | %12
 g2 dg ed B<G | B>A A<G A2 GA | B2 d2 cBAG | B<d d>e d2 B<G | c>d (3edc B<d c>A | G2 GA G2 :: %18
[K:G][M:2/2] GA |"^Miss Forbes Farewell to Banff" B2 Bd cBAG | Bdef g2 fe | ddde dBGA | %22
 B2 A2 A2 GA | B2 Bd cBAG | Bdef g2 fe | ddde dBGA | B2 G2 G2 :: Bd | g2 ga gfed | edef g2 fe | %30
 ddde dBGA | B2 A2 A2 Bd | g2 ga gfed | edef g2 fe | ddde dBGA |1 B2 G2 G2 :|2 B2 G2 .G2 z2 || %37
 G8 |] %38
V:3
 z2 |"_G" .G,,2"G" .[G,B,D]2"_D" .D,,2"D" .[DFA]2 | %2
"_E" .E,,2"Em" .[E,G,B,]2"_B" .B,,2"Bm" .[B,DF]2 | %3
"_G" .G,,2"G" .[G,B,D]2"_E" .E,,2"Em" .[E,G,B,]2 |"_G" .G,,2"G" .[G,B,D]2"D/D" .[D,,DFA]2 z2 | %5
"_E" .E,,2"Em" .[E,G,B,]2"_B" .B,,2"Bm" .[B,DF]2 |"_C" .C,,2"C" .[CEG]2"_G" .G,,2"D" .[DFA]2 | %7
"_C" .C,,2"C" .[CEG]2"_G" .G,,2"G" .[G,B,D]2 |"_C" .C,,2"C" .[CEG]2"G/G" .[G,,G,B,D]2 |: z2 | %10
"_G" .G,,2"G" .[G,B,D]2"_D" .D,,2"G" .[G,B,D]2 |"_G" .G,,2"G" .[G,B,D]2"_D" .D,,2"D" .[DFA]2 | %12
"_E" .E,,2"Em" .[E,G,B,]2"_B" .B,,2"Em" .[E,G,B,]2 |"_D" .D,,2"D" .[DFA]2"_A" .A,,2"D" .[DFA]2 | %14
"_G" .G,,2"G" .[G,B,D]2"_D" .D,,2"D" .[DFA]2 |"_E" .E,,2"Em" .[E,G,B,]2"_B" .B,,2"Bm" .[B,DF]2 | %16
"_C" .C,,2"C" .[CEG]2"_G" .G,,2"D" .[DFA]2 |"_C" .C,,2"C" .[CEG]2"G/G" .[G,,G,B,D]2 :: %18
[K:G][M:2/2] z2 |"_G" .G,,2"G" .[G,B,D]2"_D" .D,,2"D7" .[CDF]2 | %20
"_G" .G,,2"G" .[G,B,D]2"_C" .C,,2"C" .[CEG]2 |"_G" .G,,2"G" .[G,B,D]2"_E" .E,,2"Em" .[E,G,B,]2 | %22
"_A" .A,,2"Am" .[A,CE]2"D7/D" .[D,,CDF]2 z2 |"_G" .G,,2"G" .[G,B,D]2"_D" .D,,2"D7" .[CDF]2 | %24
"_G" .G,,2"G" .[G,B,D]2"_G" .G,,2"G" .[G,B,D]2 |"_D" .D,,2"D" .[DFA]2"_G" .G,,2"G" .[G,B,D]2 | %26
"_D" .D,,2"D7" .[CDF]2"G/G" .[G,,G,B,D]2 :: z2 |"_G" .G,,2"G" .[G,B,D]2"_G" .G,,2"G" .[G,B,D]2 | %29
"_C" .C,,2"C" .[CEG]2"_G" .G,,2"C" .[CEG]2 |"_G" .G,,2"G" .[G,B,D]2"_E" .E,,2"Em" .[E,G,B,]2 | %31
"_A" .A,,2"Am" .[A,CE]2"D7/D" .[D,,CDF]2 z2 |"_G" .G,,2"G" .[G,B,D]2"_G" .G,,2"G" .[G,B,D]2 | %33
"_C" .C,,2"C" .[CEG]2"_G" .G,,2"C" .[CEG]2 |"_G" .G,,2"G" .[G,B,D]2"_E" .E,,2"Em" .[E,G,B,]2 |1 %35
"_D" .D,,2"D7" .[CDF]2"G/G" .[G,,G,B,D]2 :|2"_D" .D,,2"D7" .[CDF]2"G/G" .[G,,G,B,D]2 z2 || %37
"G/G" [G,,G,B,D]8 |] %38

